X:55
T:Jessie MacKay
R:strathspey
C:Paul S. Cranford
O:Cape Breton Island
S:http://www.cranfordpub.com
D:currently unrecorded
B:The Cape Breton Fiddler's Collection
Z:psc
H:                                                        copyrights Cranford Publications, SOCAN
L:1/8
Q:300
M:C
K:F
c>F d/c/B/A/ c<FA>f|c>Fd<f c2 A>f|c>F d/c/B/A/ c<FA>f|c>FA<F G2 (3(GAB)|
c>F d/c/B/A/ c<FA>f|c>Fd<f c2 cf/g/|a/g/f/e/ f>d c<fA>f |c>FA<F  G2 G||
||f/g/|a/g/f/e/ f>d c<fA>f|c>Fd<f c2 cf/g/|a/g/f/e/ f>d c<fA>f|c>FA<F G2 Gf/g/|
a/g/f/e/ f>d c<fA>f|c>Fd<f c2 Af/g/|a>fd<f  c>fA>f|d/c/B/A/ f>A G2 (3(GAB)|]
